X:1
T:A minor Jacob French, 1802
T:Isaac Watts, 1709 (Hymn 135, Book 1)   88. 88. (L. M.)
T:Bellingham
T:Transcribed from Harmony of Harmony, 1802
%%score [ 1 2 3 4 ]
L:1/8
Q:1/4=150
M:6/4
K:C
V:1 treble nm="Treble" snm="Tr."
V:2 treble nm="Counter" snm="C."
V:3 treble-8 nm="Tenor" snm="T."
V:4 bass nm="Bass" snm="B."
V:1
 A6 | (c2 B2) A2 e4 e2 | (d2 c2) B2 c4 B2 | A4 B2 c4 B2 | A4 A2 e4 ed | c4 ec B4 dB | %6
w: ||||||
 (c2 A2) e2 e4 ed | (c2 d2) e2 (d2 c2) B2 | A4 ^G2 A6- |[M:2/2] A4 z2 AB |: c2 c2 c2 A2 | %11
w: |||||
 ^G2 G2 G2 G2 | e2 e2 e2 e2 | dc BA GA B2 | c2 c2 B2 B2 | A2 A2 e2 e2 | ed cB c2 BA |1 %17
w: ||||||
 ^G2 G2 A4- ||1 A4 z2 AB :|2 ^G2 G2 A4- || A4 |:[M:2/4] e2 ed | c2 c2 | B2 A2 | G4 | c2 cd | %26
w: |||||||||
 e2 ed | c2 A2 | B3 B | cf ed | cB A2 | de f2 | e2 z e/d/ | c2 B2 | A2 z e | e2 dc | Bc (3def | %37
w: ||* Be|ev- * er- *|las- * ting|hon- * ors|done, * *|||||
 e2 e2 |1 c4 :|2 c4- || c4 |] %41
w: ||||
V:2
 E6 | (C2 D2) EF G4 G2 | F4 E2 E4 E2 | E4 G2 G4 G2 | E4 EF G4 A2 | G4 G2 G4 GF | E4 A2 G4 A2 | %7
w: Come,|dear- * est * Lord, de-|scend and dwell, By|faith and love in|eve- ry * breast, Then|we shall know, and *|taste, and feel The|
 G4 A2 A4 G2 | F4 E2 E6- |[M:2/2] E4 z2 E2 |: A2 A2 A2 E2 | E2 E2 E2 E2 | G2 G2 G2 G2 | %13
w: joys that can- not|be ex- pressed.~|_ Come,|fill our hearts with|in- ward strength, Make|our en- larg- ed|
 G2 G2 G2 G2 | G2 G2 G2 G2 | E2 E2 E2 E2 | CD EF G2 F2 |1 E2 E2 E4- ||1 E4 z2 E2 :|2 E2 E2 E4- || %20
w: souls pos- sess and|learn the height and|breadth and length of|thine * im- * mea- su-|ra- ble grace.|* Come,|–ra- ble grace.|
 E4 |:[M:2/4] A2 AG | F2 A2 | G2 F2 | E4 | A2 AG | A2 G2 | F2 F2 | G3 z | z4 | z4 | z4 | z2 z E | %33
w: |Now to the|God whose|power can|do|More than our|thoughts or|wish- es|know,||||By|
 E2 E2 | E2 z G | A2 F2 | G2 A2 | A2 G2 |1 A4 :|2 A4- || A4 |] %41
w: all the|church, By|all the|church, through|Christ his|Son.|||
V:3
 A6 | (e2 d2) c2 B4 c2 | (B2 A2) ^G2 A4 B2 | c4 d2 e4 d2 | c4 c2 B4 cd | e4 ce d4 Bd | %6
w: ||||||
 c4 Ac B4 cd | (e2 d2) c2 f4 e2 | (d2 c2) B2 A6- |[M:2/2] A4 z2 cd |: e2 e2 e2 c2 | B2 B2 B2 B2 | %12
w: ||||||
 c2 c2 c2 c2 | d2 d2 d2 d2 | e2 e2 d2 d2 | c2 c2 B2 B2 | AB cd e2 d2 |1 c2 B2 A4- ||1 A4 z2 cd :|2 %19
w: |||||||
 c2 B2 A4- || A4 |:[M:2/4] c2 cB | A2 A2 | d2 c2 | B4 | e2 ed | c2 B2 | c2 d2 | e3 f | ed cB | %30
w: |||||||||* Be|ev- * er- *|
 AB c2 | fe dc | B2 z E | A2 B2 | c2 z B | c2 d2 | e2 (3fed | c2 B2 |1 A4 :|2 A4- || A4 |] %41
w: las- * ting|hon- * ors *|done, *|||||||||
V:4
 A,6 | (A,2 ^G,2) A,2 E,4 C,2 | D,4 E,2 A,,4 E,2 | A,4 G,2 C4 G,2 | A,4 A,2 E,4 A,B, | %5
 C4 C,2 G,4 G,2 | A,4 A,,2 E,4 A,B, | (C2 B,2) A,2 D,4 E,2 | (F,2 D,2) E,2 A,,6- | %9
[M:2/2] A,,4 z2 A,2 |: A,2 A,2 A,2 [A,,A,]2 | E,2 E,2 E,2 E,2 | C,2 C,2 C,2 C,2 | G,2 G,2 G,2 G,2 | %14
 C2 C2 G,2 G,2 | A,2 A,2 E,2 E,2 | A,2 E,D, C,2 D,2 |1 E,2 E,2 A,,4- ||1 A,,4 z2 A,2 :|2 %19
 E,2 E,2 A,,4- || A,,4 |:[M:2/4] A,2 A,E, | F,2 F,2 | G,2 A,2 | E,4 | A,>B, CB, | A,2 E,2 | %27
 A,2 F,2 | E,3 D, | C,D, E,2 | A,G, F,E, | D,C, B,,A,, | E,2 z E, | A,,2 E,2 | A,2 z E, | A,2 B,2 | %36
 E,2 D,2 | A,2 E,2 |1 A,,4 :|2 A,,4- || A,,4 |] %41

